webroot/img/platformlogos/ko-fi.svg

<svg role="img" viewBox="0 0 24 24" xmlns="http://www.w3.org/2000/svg">
  <title>Ko-fi icon</title>
  <path fill="#F16061"
    d="M23.881 8.948c-.773-4.085-4.859-4.593-4.859-4.593H.723c-.604 0-.679.798-.679.798s-.082 7.324-.022 11.822c.164 2.424 2.586 2.672 2.586 2.672s8.267-.023 11.966-.049c2.438-.426 2.683-2.566 2.658-3.734 4.352.24 7.422-2.831 6.649-6.916zm-11.062 3.511c-1.246 1.453-4.011 3.976-4.011 3.976s-.121.119-.31.023c-.076-.057-.108-.09-.108-.09-.443-.441-3.368-3.049-4.034-3.954-.709-.965-1.041-2.7-.091-3.71.951-1.01 3.005-1.086 4.363.407 0 0 1.565-1.782 3.468-.963 1.904.82 1.832 3.011.723 4.311zm6.173.478c-.928.116-1.682.028-1.682.028V7.284h1.77s1.971.551 1.971 2.638c0 1.913-.985 2.667-2.059 3.015z"/>
</svg>

<?xml version="1.0" encoding="UTF-8" standalone="no"?>
<!DOCTYPE svg PUBLIC "-//W3C//DTD SVG 1.1//EN" "http://www.w3.org/Graphics/SVG/1.1/DTD/svg11.dtd">
<svg width="100%" height="100%" viewBox="0 0 24 24" version="1.1" xmlns="http://www.w3.org/2000/svg" xmlns:xlink="http://www.w3.org/1999/xlink" xml:space="preserve" xmlns:serif="http://www.serif.com/" style="fill-rule:evenodd;clip-rule:evenodd;stroke-linejoin:round;stroke-miterlimit:2;">
    <g transform="matrix(0.958321,0,0,0.958321,0.500159,0.500192)">
        <path d="M23.881,8.948C23.108,4.863 19.022,4.355 19.022,4.355L0.723,4.355C0.119,4.355 0.044,5.153 0.044,5.153C0.044,5.153 -0.038,12.477 0.022,16.975C0.186,19.399 2.608,19.647 2.608,19.647C2.608,19.647 10.875,19.624 14.574,19.598C17.012,19.172 17.257,17.032 17.232,15.864C21.584,16.104 24.654,13.033 23.881,8.948ZM12.819,12.459C11.573,13.912 8.808,16.435 8.808,16.435C8.808,16.435 8.687,16.554 8.498,16.458C8.422,16.401 8.39,16.368 8.39,16.368C7.947,15.927 5.022,13.319 4.356,12.414C3.647,11.449 3.315,9.714 4.265,8.704C5.216,7.694 7.27,7.618 8.628,9.111C8.628,9.111 10.193,7.329 12.096,8.148C14,8.968 13.928,11.159 12.819,12.459ZM18.992,12.937C18.064,13.053 17.31,12.965 17.31,12.965L17.31,7.284L19.08,7.284C19.08,7.284 21.051,7.835 21.051,9.922C21.051,11.835 20.066,12.589 18.992,12.937Z" style="fill:rgb(241,96,97);fill-rule:nonzero;stroke:white;stroke-width:0.42px;"/>
    </g>
</svg>
